X: 28462
T: Mummer's, The
R: reel
M: 4/4
K: Gmajor
|:gfge d2 dc|B2 d2 G3G|DGBG DGBd|dcBc A4|
gfge d2 dc|B2 d2 G3G|GABd gdBG|FGAF G4:|
|:B2 d2 dB G2|dcBc A3A|GABd gfgb|afge dcBc|
B2 d2 dB G2|dcBc A3A|GABd gdBG|FGAF G4:|

